assets/icons/add-image.svg

<svg xmlns="http://www.w3.org/2000/svg" viewBox="0 0 32 32" role="presentation" aria-hidden="true"><path fill-rule="evenodd" clip-rule="evenodd" d="M4.66699 9.37611C4.66699 6.77533 6.75544 4.66699 9.33167 4.66699H22.1442C24.7204 4.66699 26.8089 6.77533 26.8089 9.37611V19.4557C26.8089 19.9334 26.4253 20.3206 25.9521 20.3206C25.4789 20.3206 25.0953 19.9334 25.0953 19.4557V9.37611C25.0953 7.73072 23.774 6.39687 22.1442 6.39687H9.33167C7.70181 6.39687 6.38055 7.73072 6.38055 9.37611V22.3107C6.38055 23.956 7.70181 25.2899 9.33167 25.2899H19.3249C19.7981 25.2899 20.1817 25.6771 20.1817 26.1548C20.1817 26.6325 19.7981 27.0198 19.3249 27.0198H9.33167C6.75544 27.0198 4.66699 24.9114 4.66699 22.3107V9.37611Z" fill="currentColor"/><path fill-rule="evenodd" clip-rule="evenodd" d="M21.9033 25.8669C21.9033 25.3892 22.2869 25.002 22.7601 25.002L29.1433 25.002C29.6165 25.002 30.0001 25.3892 30.0001 25.8669C30.0001 26.3446 29.6165 26.7318 29.1433 26.7318L22.7601 26.7318C22.2869 26.7318 21.9033 26.3446 21.9033 25.8669Z" fill="currentColor"/><path fill-rule="evenodd" clip-rule="evenodd" d="M26.0827 21.7871C26.5559 21.7871 26.9395 22.1744 26.9395 22.652L26.9395 29.1363C26.9395 29.614 26.5559 30.0012 26.0827 30.0012C25.6095 30.0012 25.2259 29.614 25.2259 29.1363L25.2259 22.652C25.2259 22.1744 25.6095 21.7871 26.0827 21.7871Z" fill="currentColor"/><path d="M9.03067 17.1597C8.9164 17.2791 8.85254 17.4387 8.85254 17.6047V21.9316C8.85254 22.4624 9.27875 22.8927 9.80451 22.8927H21.8629C22.3886 22.8927 22.8148 22.4624 22.8148 21.9316V17.6079C22.8148 17.44 22.7495 17.2787 22.6329 17.1589L19.1287 13.5577C18.7763 13.1956 18.1969 13.1897 17.8373 13.5447L13.375 17.9493C13.2556 18.0672 13.0634 18.0658 12.9458 17.9462L11.2367 16.2097C10.8765 15.8437 10.2855 15.8479 9.93056 16.219L9.03067 17.1597Z" fill="currentColor"/><path d="M15.0197 10.7798C15.0197 11.918 14.1056 12.8408 12.9781 12.8408C11.8506 12.8408 10.9365 11.918 10.9365 10.7798C10.9365 9.6415 11.8506 8.71875 12.9781 8.71875C14.1056 8.71875 15.0197 9.6415 15.0197 10.7798Z" fill="currentColor"/></svg>

<svg xmlns="http://www.w3.org/2000/svg" aria-hidden="true" viewBox="0 0 32 32"><path fill="currentColor" fill-rule="evenodd" d="M4.667 9.376c0-2.6 2.088-4.709 4.665-4.709h12.812c2.576 0 4.665 2.108 4.665 4.71v10.079a.86.86 0 0 1-.857.865.86.86 0 0 1-.857-.865V9.376c0-1.645-1.321-2.98-2.95-2.98H9.331c-1.63 0-2.951 1.335-2.951 2.98v12.935c0 1.645 1.32 2.979 2.95 2.979h9.994a.86.86 0 0 1 .857.865.86.86 0 0 1-.857.865H9.332c-2.577 0-4.665-2.109-4.665-4.71zm17.236 16.491a.86.86 0 0 1 .857-.865h6.383a.86.86 0 0 1 .857.865.86.86 0 0 1-.857.865H22.76a.86.86 0 0 1-.857-.865" clip-rule="evenodd"/><path fill="currentColor" fill-rule="evenodd" d="M26.083 21.787a.86.86 0 0 1 .857.865v6.484a.86.86 0 0 1-.857.865.86.86 0 0 1-.857-.865v-6.484a.86.86 0 0 1 .857-.865" clip-rule="evenodd"/><path fill="currentColor" d="M9.03 17.16a.64.64 0 0 0-.177.445v4.327c0 .53.426.96.952.96h12.058c.526 0 .952-.43.952-.96v-4.324a.64.64 0 0 0-.182-.45l-3.504-3.6a.91.91 0 0 0-1.292-.013l-4.462 4.404a.303.303 0 0 1-.43-.003l-1.708-1.736a.91.91 0 0 0-1.306.009zm5.99-6.38a2.05 2.05 0 0 1-2.042 2.06 2.05 2.05 0 0 1-2.041-2.06c0-1.138.914-2.061 2.041-2.061 1.128 0 2.042.923 2.042 2.06"/></svg>
